X: 1093
T: Ham-House, or Cherry-Garden.
%R: minuet, waltz
B: Henry Playford "Apollo's Banquet", London 1687 (5th Edition)
F: https://archive.org/details/apollosbanquetco01rugg
Z: 2017 John Chambers <jc:trillian.mit.edu>
M: 3/2
L: 1/8
K: C
% - - - - - - - - - -
|:\
cBcdef g2e2g2 | e2c2e2 d2d2G2 |\
cBcdef g2e2g2 | e2c2e2 d6 ::\
d2d2e2 f2gfed | e2fedc d2d2g2 |
c2cde2 d2d2g2 | cBcde2 d2d2g2 |\
c2cde2 d2def2 | e2fedc d2B2G2 |\
cBcdef g2e2c2 | d2edcB c6 |]
% - - - - - - - - - -

%%sep 1 1 500
%%sep 1 1 500

